X: 152198
T: O'Falvey's
S: Fitzmaurice Collection
Z: BB
N: Relative of "The Trumpet Hornpipe"
L: 1/8
M: 4/4
R: hornpipe
Q: 1/4 = 170
K: G
G2GG G3c | BGdB gdBG | D2DD D3G | FDAF cAFD |
G2GG G3c | BGdB gfed | egfg dBAG | FAde dcBA :|
d2dd d3 e/f/ | gdBG G3d | egfg dBAG | AGBG GFED |
DGG2 BGG2 | FAA2 cAA2 | G2 e2 edcB | cAdB G2 z2 :|
